!!!OTL: Es stand eine Lind im tiefen Thal
!!!ARE: Europa, Mitteleuropa, Deutschland
!!!SCT: L0067C
!!!YEM: Copyright 1995, estate of Helmut Schaffrath.
**kern
*ICvox
*Ivox
*M2/4
*k[b-e-]
*B-:
{8f
=1
8b-
8b-
16b-
16dd
16ff
16dd
=2
8.cc
16b-
8a}
{8cc
=3
8b-
8g
16g
16a
16b-
16g
=4
8.f
16e-
8d}
{8f
=5
8b-
8b-
8cc
16cc
16ff
=6
4dd
4cc
=7
4b-
8r}
==
!!!AGN: Lied
!! Buesching/ von der Hagen 1807
!!!ONB: ESAC (Essen Associative Code) Database: ERK5
!!!AMT: simple duple
!!!AIN: vox
!!!EED: Helmut Schaffrath
!!!EEV: 1.0
*-
